images/nvidia.svg

<svg width="114" height="22" viewBox="0 0 114 22" fill="none" xmlns="http://www.w3.org/2000/svg">
<path fill-rule="evenodd" clip-rule="evenodd" d="M12.4436 0.272949V3.13772L13.0101 3.10221C20.2931 2.85361 25.05 9.09219 25.05 9.09219C25.05 9.09219 19.5967 15.7451 13.919 15.7451C13.4233 15.7451 12.9393 15.6977 12.4554 15.6149V17.3906C12.8567 17.4379 13.2698 17.4734 13.6712 17.4734C18.9592 17.4734 22.7837 14.7626 26.4901 11.5663C26.767 11.7907 27.431 12.1572 28.124 12.5399C28.9667 13.0052 29.8524 13.4942 30.1374 13.78C26.6199 16.7395 18.4163 19.1189 13.7656 19.1189C13.317 19.1189 12.8921 19.0952 12.4672 19.0479V21.5457H32.5572V0.272949H12.4436ZM12.4436 6.61807V4.70125L12.4554 4.70033V4.69959C12.6403 4.688 12.8252 4.67665 13.0101 4.67665C18.251 4.51092 21.6859 9.19873 21.6859 9.19873C21.6859 9.19873 17.9795 14.3601 14.0017 14.3601C13.4705 14.3601 12.9511 14.2772 12.4554 14.1115V8.28722C14.378 8.52127 14.8566 9.33247 15.9207 11.1358C15.9868 11.2478 16.0552 11.3637 16.1263 11.4835L18.853 9.1869C18.853 9.1869 16.8582 6.57072 13.5059 6.57072C13.1518 6.55888 12.7977 6.58256 12.4436 6.61807ZM12.4436 6.61807V8.27538H12.4318C10.3897 8.02678 8.78439 9.94452 8.78439 9.94452C8.78439 9.94452 9.69328 13.1763 12.4436 14.1115V15.6267C7.55679 14.7507 6.19936 9.64857 6.19936 9.64857C6.19936 9.64857 8.54831 7.04423 12.4436 6.61807ZM12.4554 4.69959L12.4436 4.70033V4.70125C6.65578 5.15599 3.76778 9.43549 3.76778 9.43549C3.76778 9.43549 5.97509 16.5856 12.4436 17.3906V19.0479C3.62613 18.2192 0.486328 9.10403 0.486328 9.10403C0.486328 9.10403 6.03411 3.65859 12.4554 3.13772V4.69959ZM38.3135 4.36386V18.2612H42.3033V7.47046L45.4144 7.48222C46.4356 7.48222 47.148 7.72934 47.6349 8.24711C48.2642 8.90608 48.5136 9.97692 48.5136 11.9185V18.2612H52.3846V10.5888C52.3846 5.10521 48.8579 4.36386 45.4144 4.36386H38.3135ZM69.4243 4.38739V18.2729H73.3784V4.38739H69.4243ZM75.8008 18.2729V4.38739H81.3461C84.5047 4.38739 86.6183 4.76395 88.067 6.70557C88.8863 7.78818 89.3494 9.52976 89.3494 11.4831C89.3494 13.6131 88.8032 15.5664 87.9482 16.449C86.7489 17.7081 85.6327 18.2729 82.2129 18.2729H75.8008ZM79.7193 7.39985H81.4173C83.8872 7.39985 85.4784 8.49422 85.4784 11.3419C85.4784 14.1897 83.8872 15.2958 81.4173 15.2958H79.7193V7.39985ZM60.4235 15.3899L63.7246 4.38739H67.7619L63.2021 18.2729H57.5024L52.9902 4.38739H57.2649L60.4235 15.3899ZM91.2018 18.2729H95.1559V4.38739H91.2018V18.2729ZM96.7708 18.2612L102.292 4.38739H107.576L113.146 18.2494H108.906L108.075 15.8018H101.544L100.666 18.2612H96.7708ZM104.857 6.91739L107.256 13.413H102.387L104.857 6.91739Z" fill="#36536B"/>
</svg>

<svg width="114" height="22" fill="none" xmlns="http://www.w3.org/2000/svg"><path fill-rule="evenodd" clip-rule="evenodd" d="M12.444.273v2.865l.566-.036c7.283-.248 12.04 5.99 12.04 5.99s-5.453 6.653-11.131 6.653c-.496 0-.98-.047-1.464-.13v1.776c.402.047.815.082 1.216.082 5.288 0 9.113-2.71 12.82-5.907.276.225.94.591 1.633.974.843.465 1.728.954 2.013 1.24-3.517 2.96-11.72 5.339-16.371 5.339-.449 0-.874-.024-1.299-.071v2.498h20.09V.273H12.444Zm0 6.345V4.701h.011V4.7c.185-.012.37-.023.555-.023 5.241-.166 8.676 4.522 8.676 4.522s-3.706 5.161-7.684 5.161c-.532 0-1.05-.083-1.547-.248V8.287c1.923.234 2.402 1.045 3.466 2.849l.205.348 2.727-2.297S16.858 6.57 13.506 6.57a7.977 7.977 0 0 0-1.062.047Zm0 0v1.657h-.012c-2.042-.248-3.648 1.67-3.648 1.67s.91 3.231 3.66 4.166v1.516c-4.887-.876-6.245-5.978-6.245-5.978s2.35-2.605 6.245-3.03Zm.011-1.918h-.011v.001c-5.788.455-8.676 4.734-8.676 4.734s2.207 7.15 8.676 7.956v1.657C3.626 18.219.486 9.104.486 9.104s5.548-5.445 11.97-5.966V4.7Zm25.858-.336V18.26h3.99V7.471l3.111.011c1.022 0 1.734.247 2.22.765.63.66.88 1.73.88 3.671v6.343h3.87V10.59c0-5.484-3.526-6.225-6.97-6.225h-7.1Zm31.111.023v13.886h3.954V4.387h-3.954Zm6.377 13.886V4.387h5.545c3.159 0 5.272.377 6.721 2.319.82 1.082 1.282 2.824 1.282 4.777 0 2.13-.546 4.083-1.4 4.966-1.2 1.26-2.316 1.824-5.736 1.824H75.8ZM79.719 7.4h1.698c2.47 0 4.061 1.094 4.061 3.942s-1.59 3.954-4.06 3.954h-1.699V7.4Zm-19.295 7.99 3.3-11.003h4.038l-4.56 13.886h-5.7L52.99 4.387h4.275l3.158 11.003Zm30.778 2.883h3.954V4.387h-3.954v13.886Zm5.569-.012 5.521-13.874h5.284l5.57 13.862h-4.24l-.831-2.447h-6.531l-.878 2.46h-3.895Zm8.086-11.344 2.399 6.496h-4.869l2.47-6.496Z" fill="#36536B"/></svg>
